<?xml version="1.0" encoding="UTF-8"?>
<map version="1.10" tiledversion="1.11.1-99-gec89c545" orientation="orthogonal" renderorder="right-down" compressionlevel="0" width="30" height="50" tilewidth="32" tileheight="32" infinite="0" nextlayerid="7" nextobjectid="69">
 <properties>
  <property name="edges" value="clamped"/>
 </properties>
 <tileset firstgid="1" source="../gfx/tilesets/core_outdoor.tsx"/>
 <tileset firstgid="2776" source="../gfx/tilesets/core_buildings.tsx"/>
 <tileset firstgid="5126" source="../gfx/tilesets/oceanset_outside.tsx"/>
 <layer id="1" name="Tile Layer 1" width="30" height="50">
  <data encoding="csv">
1269,1269,1269,1269,1269,1269,1269,1269,1269,1269,1269,1269,1269,1269,1269,1269,1269,1269,1269,1269,1269,1269,1269,1269,121,121,121,1269,1269,1269,
1269,1269,121,121,121,121,121,1269,1269,1269,1269,1269,1269,1269,1269,1269,1269,1269,1269,1269,1269,1269,1269,1269,121,121,121,1269,1269,1269,
1269,1269,121,121,121,121,121,121,121,121,1269,1269,1269,1269,1269,1269,1269,1269,1269,1269,1269,1269,121,121,121,121,121,121,1269,1269,
1269,1269,84,84,121,121,121,121,121,121,121,121,121,121,1269,1269,1269,1269,1269,121,121,121,121,121,121,121,121,121,1269,1269,
1269,1269,84,84,84,84,84,121,121,121,121,121,121,121,121,1269,1269,1269,121,121,121,121,84,84,121,121,121,121,121,1269,
1269,1269,1269,1269,84,84,84,84,84,84,121,121,121,121,121,121,1269,1269,121,121,121,84,84,84,84,84,121,121,121,1269,
1269,1269,1269,1269,1269,1269,1269,84,84,84,84,84,84,84,121,121,121,121,121,121,84,84,1269,1269,84,84,84,121,121,121,
1269,1269,1269,1269,1269,1269,1269,1269,1269,1269,84,84,84,84,84,121,121,121,121,121,84,1269,1269,1269,1269,1269,84,121,121,121,
1269,1269,1269,1269,1269,1269,1269,1269,1269,1269,1269,1269,1269,1269,84,84,121,121,121,84,1269,1269,1269,1269,1269,1269,1269,84,121,121,
1269,1269,1269,1269,1269,1269,1269,1269,1269,1269,1269,1269,1269,1269,1269,84,84,121,121,84,1269,1269,1269,1269,1269,1269,1269,84,121,121,
1269,1269,1269,1269,1269,1269,1269,1269,1269,121,121,1269,1269,1269,1269,1269,84,84,121,121,1269,1269,1269,1269,1269,1269,1269,1269,121,121,
1269,1269,1269,1269,1269,1269,121,121,121,121,121,121,121,121,1269,1269,1269,84,121,121,1269,1269,1269,1269,1269,1269,1269,1269,121,121,
1269,1269,1269,1269,1269,121,121,121,121,121,121,121,121,121,121,1269,1269,1269,84,121,121,1269,1269,1269,1269,1269,1269,1269,121,121,
1269,1269,1269,1269,121,121,121,121,121,121,121,121,121,121,121,121,1269,1269,84,84,121,121,121,1269,1269,1269,1269,1269,121,121,
1269,1269,1269,1269,121,121,121,121,121,121,121,121,121,121,121,121,121,1269,1269,84,84,121,121,121,1269,1269,1269,121,121,121,
1269,1269,1269,121,121,121,121,121,121,121,121,121,121,121,121,121,121,1269,1269,1269,84,84,121,121,121,1269,1269,121,121,121,
1269,1269,1269,121,121,121,121,121,121,121,121,121,121,121,121,121,121,1269,1269,1269,1269,84,84,121,121,121,121,121,121,84,
1269,1269,1269,121,121,121,121,121,121,121,121,121,121,121,121,121,121,1269,1269,1269,1269,1269,84,84,121,121,121,121,121,84,
1269,1269,1269,84,121,121,121,121,121,121,121,121,121,121,121,121,121,121,121,1269,1269,1269,1269,84,121,121,121,121,84,1269,
1269,1269,1269,84,121,121,121,121,121,121,121,121,121,121,121,121,121,121,121,121,121,1269,1269,1269,121,121,121,121,84,1269,
1269,1269,1269,1269,121,121,121,121,121,121,121,121,121,121,84,84,121,121,121,121,121,121,121,121,121,121,121,121,1269,1269,
1269,1269,1269,1269,84,121,84,121,121,121,121,121,84,84,84,84,84,84,121,121,121,121,121,121,121,121,121,84,1269,1269,
1269,1269,1269,1269,84,121,84,84,84,84,84,84,84,84,1269,1269,84,84,84,121,121,121,121,121,121,121,84,84,1269,1269,
1269,1269,1269,1269,1269,48,1269,84,84,84,84,84,1269,1269,1269,1269,1269,1269,84,84,121,121,121,121,121,121,84,1269,1269,1269,
1269,1269,1269,1269,1269,48,1269,1269,1269,1269,1269,1269,1269,1269,1269,1269,1269,1269,1269,84,84,121,121,121,121,121,1269,1269,1269,1269,
1269,1269,1269,1269,1269,48,1269,1269,1269,1269,1269,1269,1269,1269,1269,1269,1269,1269,1269,1269,84,84,84,84,84,84,1269,1269,1269,1269,
1269,1269,1269,1269,1269,48,1269,1269,1269,1269,1269,1269,1269,1269,1269,1269,1269,1269,1269,1269,1269,84,84,84,84,84,1269,1269,1269,1269,
1269,1269,1269,1269,1269,48,1269,1269,1269,1269,1269,1269,1269,1269,1269,1269,1269,1269,1269,1269,1269,1269,1269,1269,1269,1269,1269,1269,1269,1269,
1269,1269,1269,1269,1269,121,121,1269,1269,1269,1269,1269,1269,1269,1269,1269,1269,1269,1269,1269,1269,1269,1269,1269,1269,1269,1269,1269,1269,1269,
1269,1269,1269,1269,1269,121,121,121,1269,1269,1269,1269,1269,1269,1269,1269,1269,1269,1269,1269,1269,1269,1269,1269,1269,1269,1269,1269,1269,1269,
1269,1269,1269,1269,1269,121,121,121,121,1269,1269,1269,1269,1269,1269,1269,1269,1269,1269,1269,1269,1269,1269,121,121,5423,5351,5353,1269,1269,
1269,1269,1269,1269,1269,121,121,121,121,121,121,121,1269,1269,1269,1269,1269,1269,1269,1269,121,121,121,121,121,121,121,5369,1269,1269,
1269,1269,1269,1269,121,121,121,121,121,121,121,121,121,121,121,1269,1269,1269,1269,121,121,121,121,121,121,121,121,5398,5353,1269,
1269,1269,1269,121,121,121,121,121,84,84,121,121,121,121,121,121,1269,1269,121,121,121,121,84,84,84,121,121,121,5369,1269,
1269,1269,1269,121,121,121,121,84,84,84,84,84,121,121,121,121,1269,121,121,121,84,84,84,84,5366,121,121,121,5369,1269,
1269,1269,1269,121,121,121,84,84,84,1269,84,84,84,84,121,121,121,121,121,84,84,84,1269,5350,5420,121,121,121,5398,5353,
1269,1269,1269,121,121,121,84,1269,1269,1269,1269,1269,84,84,121,121,121,121,84,84,1269,1269,1269,5366,121,121,121,121,121,5369,
1269,1269,1269,121,121,121,1269,1269,1269,1269,1269,1269,1269,1269,84,121,121,121,84,1269,1269,1269,1269,5366,121,121,121,121,121,5369,
1269,1269,1269,84,121,121,1269,1269,1269,1269,1269,1269,1269,1269,84,84,121,121,121,1269,1269,1269,1269,5366,121,121,121,121,121,5369,
1269,1269,1269,84,84,121,121,1269,1269,1269,1269,1269,1269,1269,1269,84,121,121,121,1269,1269,1269,1269,5382,121,121,121,121,121,5369,
1269,1269,1269,1269,84,84,84,1269,1269,1269,1269,1269,1269,1269,1269,1269,84,121,121,121,1269,1269,1269,5398,5434,121,121,121,5350,5401,
1269,1269,1269,1269,1269,84,84,1269,1269,1269,1269,1269,1269,1269,1269,1269,84,84,121,121,1269,1269,1269,5414,5398,5399,5399,5399,5401,5416,
1269,1269,1269,1269,1269,1269,1269,1269,1269,1269,1269,1269,1269,1269,1269,1269,1269,84,121,121,121,1269,1269,5414,5415,5416,5416,5416,5416,5416,
1269,1269,1269,1269,121,121,121,1269,1269,1269,1269,1269,1269,1269,1269,1269,121,121,121,121,121,121,1269,5414,5415,5415,5415,5415,5415,5416,
1269,1269,1269,1269,121,121,121,121,121,1269,1269,1269,1269,1269,1269,121,121,121,121,121,121,121,121,5430,5415,5415,5416,5416,5416,5416,
1269,1269,1269,1269,84,121,121,121,121,121,1269,1269,1269,1269,121,121,121,121,84,84,121,121,121,121,5414,5415,5415,5415,5415,5416,
1269,1269,1269,1269,84,84,121,121,121,121,121,1269,121,121,121,121,121,84,84,84,84,121,121,121,5430,5415,5416,5416,5416,5416,
1269,1269,1269,1269,1269,84,84,84,121,121,121,121,121,121,121,121,84,84,1269,1269,84,121,121,121,121,5430,5415,5416,5415,5416,
1269,1269,1269,1269,1269,1269,84,84,84,121,121,121,121,121,121,84,84,1269,1269,1269,1269,84,121,121,121,121,5430,5416,5416,5416,
1269,1269,1269,1269,1269,1269,1269,1269,84,84,84,84,84,84,84,84,1269,1269,1269,1269,1269,84,84,121,121,121,121,5430,5415,5416
</data>
 </layer>
 <layer id="2" name="Tile Layer 2" width="30" height="50">
  <data encoding="csv">
0,0,0,0,0,0,0,0,0,0,0,0,0,0,0,0,0,0,0,0,0,0,0,0,46,0,48,0,0,0,
0,0,9,10,10,10,11,0,0,0,0,0,0,0,0,0,0,0,0,0,0,0,0,0,46,0,48,0,0,0,
0,0,46,0,0,0,0,10,10,11,0,0,0,0,0,0,0,0,0,0,0,0,9,10,0,0,0,11,0,0,
0,0,0,0,0,0,0,0,0,0,10,10,10,11,0,0,0,0,0,9,10,10,0,0,0,0,0,48,0,0,
0,0,0,0,0,0,0,0,0,0,0,0,0,0,11,0,0,0,9,0,0,0,0,0,0,0,0,0,11,0,
0,0,0,0,0,0,0,0,0,0,0,0,0,0,0,11,0,0,46,0,0,0,0,0,0,0,0,0,48,0,
0,0,0,0,0,0,0,0,0,0,0,0,0,0,0,0,10,10,0,0,0,0,0,0,0,0,0,0,0,10,
0,0,0,0,0,0,0,0,0,0,0,0,0,0,0,0,0,0,0,0,0,0,0,0,0,0,0,0,0,0,
0,0,0,0,0,0,0,0,0,0,0,0,0,0,0,0,0,0,0,0,0,0,0,0,0,0,0,0,46,0,
0,0,0,0,0,0,0,0,0,0,0,0,0,0,0,0,0,0,0,0,0,0,0,0,0,0,0,0,46,0,
0,0,0,0,0,0,0,0,0,9,11,0,0,0,0,0,0,0,0,48,0,0,0,0,0,0,0,0,46,0,
0,0,0,0,0,0,9,10,10,0,0,10,10,11,0,0,0,0,0,48,0,0,0,0,0,0,0,0,46,0,
0,0,0,0,0,9,0,3031,3032,3033,3034,3035,0,0,11,0,0,0,0,0,11,0,0,0,0,0,0,0,46,0,
0,0,0,0,9,0,0,3078,3079,3080,3081,3082,0,0,0,11,0,0,0,0,0,10,11,0,0,0,0,0,46,0,
0,0,0,0,46,0,0,3125,3126,3127,3128,3129,0,0,0,0,11,0,0,0,0,0,0,11,0,0,0,9,0,0,
0,0,0,9,0,0,0,3172,3173,3081,3175,3176,0,0,0,0,48,0,0,0,0,0,0,0,11,0,0,46,0,0,
0,0,0,46,0,0,0,0,0,0,0,0,0,0,0,0,48,0,0,0,0,0,0,0,0,10,10,0,0,0,
0,0,0,46,0,0,0,0,0,0,0,0,0,0,0,0,48,0,0,0,0,0,0,0,46,0,0,0,0,0,
0,0,0,0,0,0,0,0,0,0,0,0,0,0,0,0,0,10,11,0,0,0,0,0,46,0,0,0,0,0,
0,0,0,0,0,0,0,0,0,0,0,0,0,0,0,0,0,0,0,10,11,0,0,0,46,0,0,0,0,0,
0,0,0,0,46,0,0,0,0,0,0,0,0,0,0,0,0,0,0,0,0,10,10,10,0,0,0,48,0,0,
0,0,0,0,0,0,0,0,0,0,0,0,0,0,0,0,0,0,0,0,0,0,0,0,0,0,0,0,0,0,
0,0,0,0,0,0,0,0,0,0,0,0,0,0,0,0,0,0,0,0,0,0,0,0,0,0,0,0,0,0,
0,0,0,0,0,46,0,0,0,0,0,0,0,0,0,0,0,0,0,0,0,0,0,0,0,0,0,0,0,0,
0,0,0,0,0,46,0,0,0,0,0,0,0,0,0,0,0,0,0,0,0,0,0,0,0,48,0,0,0,0,
0,0,0,0,0,46,0,0,0,0,0,0,0,0,0,0,0,0,0,0,0,0,0,0,0,0,0,0,0,0,
0,0,0,0,0,46,0,0,0,0,0,0,0,0,0,0,0,0,0,0,0,0,0,0,0,0,0,0,0,0,
0,0,0,0,0,46,0,0,0,0,0,0,0,0,0,0,0,0,0,0,0,0,0,0,0,0,0,0,0,0,
0,0,0,0,0,46,11,0,0,0,0,0,0,0,0,0,0,0,0,0,0,0,0,0,0,0,0,0,0,0,
0,0,0,0,0,46,0,11,0,0,0,0,0,0,0,0,0,0,0,0,0,0,0,0,0,0,0,0,0,0,
0,0,0,0,0,46,0,0,11,0,0,0,0,0,0,0,0,0,0,0,0,0,0,9,10,0,0,0,0,0,
0,0,0,0,0,46,0,0,0,10,10,11,0,0,0,0,0,0,0,0,9,10,10,0,0,0,0,0,0,0,
0,0,0,0,9,0,0,0,0,0,0,0,10,10,11,0,0,0,0,9,0,0,0,0,0,0,0,0,0,0,
0,0,0,9,0,0,0,0,0,0,0,0,0,0,0,11,0,0,9,0,0,0,0,0,0,0,0,0,0,0,
0,0,0,46,0,0,0,0,0,0,0,0,0,0,0,48,0,9,0,0,0,0,0,0,0,0,0,0,0,0,
0,0,0,46,0,0,0,0,0,0,0,0,0,0,0,0,10,0,0,0,0,0,0,0,0,0,0,0,0,0,
0,0,0,46,0,0,0,0,0,0,0,0,0,0,0,0,0,0,0,0,0,0,0,0,0,0,0,0,0,0,
0,0,0,46,0,48,0,0,0,0,0,0,0,0,0,0,0,0,0,0,0,0,0,0,0,0,0,0,0,0,
0,0,0,0,0,48,0,0,0,0,0,0,0,0,0,0,0,0,48,0,0,0,0,0,0,0,0,0,0,0,
0,0,0,0,0,0,11,0,0,0,0,0,0,0,0,0,0,0,48,0,0,0,0,0,0,0,0,0,0,0,
0,0,0,0,0,0,0,0,0,0,0,0,0,0,0,0,0,0,0,11,0,0,0,0,0,0,0,0,0,0,
0,0,0,0,0,0,0,0,0,0,0,0,0,0,0,0,0,0,0,48,0,0,0,0,0,0,0,0,0,0,
0,0,0,0,0,0,0,0,0,0,0,0,0,0,0,0,0,0,0,0,11,0,0,0,0,0,0,0,0,0,
0,0,0,0,9,10,11,0,0,0,0,0,0,0,0,0,9,0,0,0,0,11,0,0,0,0,0,0,0,0,
0,0,0,0,46,0,0,10,11,0,0,0,0,0,0,9,0,0,0,0,0,0,10,0,0,0,0,0,0,0,
0,0,0,0,0,0,0,0,0,11,0,0,0,0,9,0,0,0,0,0,0,0,0,0,0,0,0,0,0,0,
0,0,0,0,0,0,0,0,0,0,11,0,9,10,0,0,0,0,0,0,0,0,0,0,0,0,0,0,0,0,
0,0,0,0,0,0,0,0,0,0,0,10,0,0,0,0,0,0,0,0,0,0,0,0,0,0,0,0,0,0,
0,0,0,0,0,0,0,0,0,0,0,0,0,0,0,0,0,0,0,0,0,0,0,0,0,0,0,0,0,0,
0,0,0,0,0,0,0,0,0,0,0,0,0,0,0,0,0,0,0,0,0,0,0,0,0,0,0,0,0,0
</data>
 </layer>
 <layer id="4" name="Tile Layer 3" width="30" height="50">
  <data encoding="csv">
0,0,0,0,0,0,0,0,0,0,0,0,0,0,0,0,0,0,0,0,0,0,0,0,0,0,0,0,0,0,
0,0,0,0,0,1247,1247,0,0,0,0,0,0,0,0,0,0,0,0,0,0,0,0,0,0,0,0,0,0,0,
0,0,0,0,0,1247,1247,1247,1247,1247,0,0,0,0,0,0,0,0,0,0,0,0,0,0,0,0,0,1247,0,0,
0,0,0,0,0,0,0,0,1247,1247,1247,1247,1247,1247,0,0,0,0,0,1247,1247,0,0,0,0,0,1247,1247,0,0,
0,0,0,0,0,0,0,0,0,0,0,1247,1247,1247,1247,0,0,0,1247,1247,0,0,0,0,0,0,0,1247,1247,0,
0,0,0,0,0,0,0,0,0,0,0,0,0,0,0,0,0,0,1247,0,0,0,0,0,0,0,0,0,1247,0,
0,0,0,0,0,0,0,0,0,0,0,0,0,0,0,0,0,1247,1247,0,0,0,0,0,0,0,0,0,0,0,
0,0,0,0,0,0,0,0,0,0,0,0,0,0,0,0,0,0,0,0,0,0,0,0,0,0,0,0,0,0,
0,0,0,0,0,0,0,0,0,0,0,0,0,0,0,0,0,0,0,0,0,0,0,0,0,0,0,0,0,0,
0,0,0,0,0,0,0,0,0,0,0,0,0,0,0,0,0,0,0,0,0,0,0,0,0,0,0,0,0,0,
0,0,0,0,0,0,0,0,0,0,0,0,0,0,0,0,0,0,0,0,0,0,0,0,0,0,0,0,0,0,
0,0,0,0,0,0,0,0,0,0,0,0,0,0,0,0,0,0,0,0,0,0,0,0,0,0,0,0,0,0,
0,0,0,0,0,0,0,0,0,0,0,0,0,0,0,0,0,0,0,0,0,0,0,0,0,0,0,0,0,0,
0,0,0,0,0,0,0,0,0,0,0,0,0,0,0,0,0,0,0,0,0,0,0,0,0,0,0,0,0,0,
0,0,0,0,0,0,0,0,0,0,0,0,0,0,0,1247,1247,0,0,0,0,0,0,0,0,0,0,0,0,0,
0,0,0,0,0,0,0,0,0,0,0,0,0,0,1247,1247,1247,0,0,0,0,0,0,0,0,0,0,0,0,0,
0,0,0,1247,1247,0,0,0,0,0,0,0,0,0,1247,1247,1247,0,0,0,0,0,0,0,0,0,0,0,0,0,
0,0,0,1247,1247,1247,0,0,0,0,0,0,0,0,0,1247,1247,0,0,0,0,0,0,0,0,0,0,0,0,0,
0,0,0,0,1247,1247,0,0,0,0,0,0,0,0,0,0,0,0,0,0,0,0,0,0,0,0,0,0,0,0,
0,0,0,0,1247,0,0,0,0,0,0,0,0,0,0,0,0,0,0,0,0,0,0,0,0,0,0,0,0,0,
0,0,0,0,0,0,0,0,0,0,0,0,0,0,0,0,0,0,0,0,0,0,0,0,0,0,0,0,0,0,
0,0,0,0,0,0,0,0,0,0,0,0,0,0,0,0,0,0,0,0,0,0,0,0,0,0,0,0,0,0,
0,0,0,0,0,0,0,0,0,0,0,0,0,0,0,0,0,0,0,0,0,0,1247,1247,1247,0,0,0,0,0,
0,0,0,0,0,0,0,0,0,0,0,0,0,0,0,0,0,0,0,0,0,0,1247,1247,1247,0,0,0,0,0,
0,0,0,0,0,0,0,0,0,0,0,0,0,0,0,0,0,0,0,0,0,1247,1247,1247,0,0,0,0,0,0,
0,0,0,0,0,0,0,0,0,0,0,0,0,0,0,0,0,0,0,0,0,0,0,0,0,0,0,0,0,0,
0,0,0,0,0,0,0,0,0,0,0,0,0,0,0,0,0,0,0,0,0,0,0,0,0,0,0,0,0,0,
0,0,0,0,0,0,0,0,0,0,0,0,0,0,0,0,0,0,0,0,0,0,0,0,0,0,0,0,0,0,
0,0,0,0,0,0,0,0,0,0,0,0,0,0,0,0,0,0,0,0,0,0,0,0,0,0,0,0,0,0,
0,0,0,0,0,0,0,0,0,0,0,0,0,0,0,0,0,0,0,0,0,0,0,0,0,0,0,0,0,0,
0,0,0,0,0,0,0,0,0,0,0,0,0,0,0,0,0,0,0,0,0,0,0,1247,1247,0,0,0,0,0,
0,0,0,0,0,0,0,0,0,0,0,1247,0,0,0,0,0,0,0,0,1247,1247,1247,1247,0,1247,1247,0,0,0,
0,0,0,0,0,0,0,0,0,0,0,1247,1247,1247,1247,0,0,0,0,1247,1247,0,0,0,0,0,0,0,0,0,
0,0,0,0,0,0,0,0,0,0,0,0,0,1247,1247,1247,0,0,0,0,0,0,0,0,0,0,0,0,0,0,
0,0,0,1247,0,0,0,0,0,0,0,0,0,0,0,0,0,0,0,0,0,0,0,0,0,0,0,0,0,0,
0,0,0,1247,1247,0,0,0,0,0,0,0,0,0,0,0,0,0,0,0,0,0,0,0,0,0,0,0,0,0,
0,0,0,1247,1247,0,0,0,0,0,0,0,0,0,0,0,0,0,0,0,0,0,0,0,0,0,0,0,0,0,
0,0,0,1247,0,0,0,0,0,0,0,0,0,0,0,0,0,0,0,0,0,0,0,0,0,0,0,0,0,0,
0,0,0,0,0,0,0,0,0,0,0,0,0,0,0,0,0,0,0,0,0,0,0,0,0,1247,1247,1247,0,0,
0,0,0,0,0,0,0,0,0,0,0,0,0,0,0,0,0,0,0,0,0,0,0,0,1247,1247,1247,1247,1247,0,
0,0,0,0,0,0,0,0,0,0,0,0,0,0,0,0,0,0,0,0,0,0,0,0,0,1247,1247,1247,0,0,
0,0,0,0,0,0,0,0,0,0,0,0,0,0,0,0,0,0,0,0,0,0,0,0,0,0,0,0,0,0,
0,0,0,0,0,0,0,0,0,0,0,0,0,0,0,0,0,0,0,0,0,0,0,0,0,0,0,0,0,0,
0,0,0,0,0,0,0,0,0,0,0,0,0,0,0,0,1247,0,0,0,0,1247,0,0,0,0,0,0,0,0,
0,0,0,0,0,0,0,1247,1247,0,0,0,0,0,0,1247,1247,0,0,0,0,1247,1247,0,0,0,0,0,0,0,
0,0,0,0,0,0,0,1247,1247,1247,0,0,0,0,1247,1247,0,0,0,0,0,0,1247,1247,0,0,0,0,0,0,
0,0,0,0,0,0,0,0,0,1247,1247,0,1247,1247,1247,0,0,0,0,0,0,0,0,1247,0,0,0,0,0,0,
0,0,0,0,0,0,0,0,0,0,0,0,0,0,0,0,0,0,0,0,0,0,0,0,0,0,0,0,0,0,
0,0,0,0,0,0,0,0,0,0,0,0,0,0,0,0,0,0,0,0,0,0,0,0,0,0,0,0,0,0,
0,0,0,0,0,0,0,0,0,0,0,0,0,0,0,0,0,0,0,0,0,0,0,0,0,0,0,0,0,0
</data>
 </layer>
 <layer id="6" name="Tile Layer 4" width="30" height="50">
  <data encoding="csv">
0,0,0,0,0,0,0,0,0,0,0,0,0,0,0,0,0,0,0,0,0,0,0,0,0,0,0,0,0,0,
0,0,0,0,0,0,0,0,0,0,0,0,0,0,0,0,0,0,0,0,0,0,0,0,0,0,0,0,0,0,
0,0,0,0,0,0,0,0,0,0,0,0,0,0,0,0,0,0,0,0,0,0,0,0,0,0,0,0,0,0,
0,0,0,0,0,0,0,0,0,0,0,0,0,0,0,0,0,0,0,0,0,0,0,0,0,0,0,0,0,0,
0,0,0,0,0,0,0,0,0,0,0,0,0,0,0,0,0,0,0,0,0,0,0,0,0,0,0,0,0,0,
0,0,0,0,0,0,0,0,0,0,0,0,0,0,0,0,0,0,0,0,0,0,0,0,0,0,0,0,0,0,
0,0,0,0,0,0,0,0,0,0,0,0,0,0,0,0,0,0,0,0,0,0,0,0,0,0,0,0,0,0,
0,0,0,0,0,0,0,0,0,0,0,0,0,0,0,0,0,0,0,0,0,0,0,0,0,0,0,0,0,0,
0,0,0,0,0,0,0,0,0,0,0,0,0,0,0,0,0,0,0,0,0,0,0,0,0,0,0,0,0,0,
0,0,0,0,0,0,0,0,0,0,0,0,0,0,0,0,0,0,0,0,0,0,0,0,0,0,0,0,0,0,
0,0,0,0,0,0,0,0,0,0,0,0,0,0,0,0,0,0,0,0,0,0,0,0,0,0,0,0,0,0,
0,0,0,0,0,0,0,0,0,0,0,0,0,0,0,0,0,0,0,0,0,0,0,0,0,0,0,0,0,0,
0,0,0,0,0,0,0,0,0,0,0,0,0,0,0,0,0,0,0,0,0,0,0,0,0,0,0,0,0,0,
0,0,0,0,0,0,0,0,0,0,0,0,0,0,0,0,0,0,0,0,0,0,0,0,0,0,0,0,0,0,
0,0,0,0,0,0,0,0,0,0,0,0,0,0,0,0,0,0,0,0,0,0,0,0,0,0,0,0,0,0,
0,0,0,0,0,0,0,0,0,0,0,0,0,0,0,0,0,0,0,0,0,0,0,0,0,0,0,0,0,0,
0,0,0,0,0,0,0,0,0,0,0,0,0,0,0,0,0,0,0,0,0,0,0,0,0,0,0,0,0,0,
0,0,0,0,0,0,0,0,0,0,0,0,0,0,0,0,0,0,0,0,0,0,0,0,0,0,0,0,0,0,
0,0,0,0,0,0,0,0,0,0,0,0,0,0,0,0,0,0,0,0,0,0,0,0,0,0,0,0,0,0,
0,0,0,0,0,0,0,0,0,0,0,0,0,0,0,0,0,0,0,0,0,0,0,0,0,0,0,0,0,0,
0,0,0,0,0,0,0,0,0,0,0,0,0,0,0,0,0,0,0,0,0,0,0,0,0,0,0,0,0,0,
0,0,0,0,0,0,0,0,0,0,0,0,0,0,0,0,0,0,0,0,0,0,0,0,0,0,0,0,0,0,
0,0,0,0,0,0,0,0,0,0,0,0,0,0,0,0,0,0,0,0,0,0,0,0,0,0,0,0,0,0,
0,0,0,0,0,0,0,0,0,0,0,0,0,0,0,0,0,0,0,0,0,0,0,0,0,0,0,0,0,0,
0,0,0,0,0,0,0,0,0,0,0,0,0,0,0,0,0,0,0,0,0,0,0,0,0,0,0,0,0,0,
0,0,0,0,0,0,0,0,0,0,0,0,0,0,0,0,0,0,0,0,0,0,0,0,0,0,0,0,0,0,
0,0,0,0,0,0,0,0,0,0,0,0,0,0,0,0,0,0,0,0,0,0,0,0,0,0,0,0,0,0,
0,0,0,0,0,0,0,0,0,0,0,0,0,0,0,0,0,0,0,0,0,0,0,0,0,0,0,0,0,0,
0,0,0,0,0,0,0,0,0,0,0,0,0,0,0,0,0,0,0,0,0,0,0,0,0,0,0,0,0,0,
0,0,0,0,0,0,0,0,0,0,0,0,0,0,0,0,0,0,0,0,0,0,0,0,0,0,0,0,0,0,
0,0,0,0,0,0,0,0,0,0,0,0,0,0,0,0,0,0,0,0,0,0,0,0,0,0,0,0,0,0,
0,0,0,0,0,0,0,0,0,0,0,0,0,0,0,0,0,0,0,0,0,0,0,0,0,0,0,0,0,0,
0,0,0,0,0,0,0,0,0,0,0,0,0,0,0,0,0,0,0,0,0,0,0,0,0,0,0,0,0,0,
0,0,0,0,0,0,0,0,0,0,0,0,0,0,0,0,0,0,0,0,0,0,0,0,0,0,0,0,0,0,
0,0,0,0,0,0,0,0,0,0,0,0,0,0,0,0,0,0,0,0,0,0,0,0,0,0,0,0,0,0,
0,0,0,0,0,0,0,0,0,0,0,0,0,0,0,0,0,0,0,0,0,0,0,0,0,0,0,0,0,0,
0,0,0,0,0,0,0,0,0,0,0,0,0,0,0,0,0,0,0,0,0,0,0,0,0,0,0,0,0,0,
0,0,0,0,0,0,0,0,0,0,0,0,0,0,0,0,0,0,0,0,0,0,0,0,0,0,0,0,0,0,
0,0,0,0,0,0,0,0,0,0,0,0,0,0,0,0,0,0,0,0,0,0,0,0,0,0,0,0,0,0,
0,0,0,0,0,0,0,0,0,0,0,0,0,0,0,0,0,0,0,0,0,0,0,0,0,0,0,0,0,0,
0,0,0,0,0,0,0,0,0,0,0,0,0,0,0,0,0,0,0,0,0,0,0,0,0,0,0,0,0,0,
0,0,0,0,0,0,0,0,0,0,0,0,0,0,0,0,0,0,0,0,0,0,0,0,0,0,0,0,0,0,
0,0,0,0,0,0,0,0,0,0,0,0,0,0,0,0,0,0,0,0,0,0,0,0,0,0,0,0,0,0,
0,0,0,0,0,0,0,0,0,0,0,0,0,0,0,0,0,0,0,0,0,0,0,0,0,0,0,0,0,0,
0,0,0,0,0,0,0,0,0,0,0,0,0,0,0,0,0,0,0,0,0,0,0,0,0,0,0,0,0,0,
0,0,0,0,0,0,0,0,0,0,0,0,0,0,0,0,0,0,0,0,0,0,0,0,0,0,0,0,0,0,
0,0,0,0,0,0,0,0,0,0,0,0,0,0,0,0,0,0,0,0,0,0,0,0,0,0,0,0,0,0,
0,0,0,0,0,0,0,0,0,0,0,0,0,0,0,0,0,0,0,0,0,0,0,0,0,0,0,0,0,0,
0,0,0,0,0,0,0,0,0,0,0,0,0,0,0,0,0,0,0,0,0,0,0,0,0,0,0,0,0,0,
0,0,0,0,0,0,0,0,0,0,0,0,0,0,0,0,0,0,0,0,0,0,0,0,0,0,0,0,0,0
</data>
 </layer>
 <objectgroup color="#ffff00" id="3" name="Events">
  <object id="1" name="Teleport to Lower Village" type="event" x="736" y="1568" width="32" height="32">
   <properties>
    <property name="act1" value="transition_teleport player,water_lower_village.tmx,25,0,0.5"/>
    <property name="act2" value="char_face player,down"/>
    <property name="cond1" value="is char_at player"/>
    <property name="cond2" value="is char_facing player,down"/>
   </properties>
  </object>
  <object id="2" name="Teleport to Lower Village" type="event" x="768" y="1568" width="32" height="32">
   <properties>
    <property name="act1" value="transition_teleport player,water_lower_village.tmx,26,0,0.5"/>
    <property name="act2" value="char_face player,down"/>
    <property name="cond1" value="is char_at player"/>
    <property name="cond2" value="is char_facing player,down"/>
   </properties>
  </object>
  <object id="3" name="Teleport to Lower Village" type="event" x="800" y="1568" width="32" height="32">
   <properties>
    <property name="act1" value="transition_teleport player,water_lower_village.tmx,27,0,0.5"/>
    <property name="act2" value="char_face player,down"/>
    <property name="cond1" value="is char_at player"/>
    <property name="cond2" value="is char_facing player,down"/>
   </properties>
  </object>
  <object id="4" name="Teleport to Lower Village" type="event" x="832" y="1568" width="32" height="32">
   <properties>
    <property name="act1" value="transition_teleport player,water_lower_village.tmx,27,0,0.5"/>
    <property name="act2" value="char_face player,down"/>
    <property name="cond1" value="is char_at player"/>
    <property name="cond2" value="is char_facing player,down"/>
   </properties>
  </object>
  <object id="5" name="Teleport to River Village" type="event" x="768" y="0" width="32" height="32">
   <properties>
    <property name="act1" value="transition_teleport player,water_river_village.tmx,17,28,0.5"/>
    <property name="act2" value="char_face player,up"/>
    <property name="cond1" value="is char_at player"/>
    <property name="cond2" value="is char_facing player,up"/>
   </properties>
  </object>
  <object id="6" name="Teleport to River Village" type="event" x="800" y="0" width="32" height="32">
   <properties>
    <property name="act1" value="transition_teleport player,water_river_village.tmx,18,28,0.5"/>
    <property name="act2" value="char_face player,up"/>
    <property name="cond1" value="is char_at player"/>
    <property name="cond2" value="is char_facing player,up"/>
   </properties>
  </object>
  <object id="7" name="Teleport to River Village" type="event" x="832" y="0" width="32" height="32">
   <properties>
    <property name="act1" value="transition_teleport player,water_river_village.tmx,17,27,0.1"/>
    <property name="act2" value="char_face player,up"/>
    <property name="cond1" value="is char_at player"/>
    <property name="cond2" value="is char_facing player,up"/>
   </properties>
  </object>
  <object id="8" name="Create Nurse" type="event" x="288" y="512" width="32" height="32">
   <properties>
    <property name="act1" value="create_npc water_nurse,9,16"/>
    <property name="cond1" value="not char_exists water_nurse"/>
   </properties>
  </object>
  <object id="9" name="Talk Nurse" type="event" x="320" y="480" width="32" height="32">
   <properties>
    <property name="act10" value="translated_dialog water_nurse1"/>
    <property name="act20" value="set_monster_health"/>
    <property name="act30" value="set_monster_status"/>
    <property name="act40" value="translated_dialog water_nurse2"/>
    <property name="behav1" value="talk water_nurse"/>
   </properties>
  </object>
  <object id="11" name="Create CoolDude" type="event" x="864" y="1152" width="32" height="32">
   <properties>
    <property name="act1" value="create_npc water_cooldude,27,36"/>
    <property name="cond1" value="not char_exists water_cooldude"/>
   </properties>
  </object>
  <object id="15" name="Talk Cool Dude" type="event" x="896" y="1088" width="32" height="32">
   <properties>
    <property name="act1" value="translated_dialog water_cooldude1"/>
    <property name="act20" value="translated_dialog water_cooldude2"/>
    <property name="behav1" value="talk water_cooldude"/>
   </properties>
  </object>
  <object id="16" name="Create Hiding Guy" type="event" x="128" y="1376" width="32" height="32">
   <properties>
    <property name="act1" value="create_npc water_swimmer,4,43"/>
    <property name="cond1" value="not char_exists water_swimmer"/>
   </properties>
  </object>
  <object id="17" name="Talk Hiding Guy" type="event" x="64" y="1376" width="32" height="32">
   <properties>
    <property name="act1" value="translated_dialog water_hiding_guy1"/>
    <property name="act20" value="translated_dialog water_hiding_guy2"/>
    <property name="behav1" value="talk water_swimmer"/>
   </properties>
  </object>
  <object id="18" name="Create Disciple" type="event" x="160" y="992" width="32" height="32">
   <properties>
    <property name="act1" value="create_npc water_disciple,5,31"/>
    <property name="cond1" value="not char_exists water_disciple"/>
   </properties>
  </object>
  <object id="19" name="Talk Disciple" type="event" x="64" y="992" width="32" height="32">
   <properties>
    <property name="act1" value="translated_dialog water_disciple1"/>
    <property name="behav1" value="talk water_disciple"/>
   </properties>
  </object>
  <object id="20" name="Create Lost Guy" type="event" x="64" y="32" width="32" height="32">
   <properties>
    <property name="act1" value="create_npc postboy,2,1"/>
    <property name="cond1" value="not char_exists postboy"/>
   </properties>
  </object>
  <object id="21" name="Talk Lost Guy" type="event" x="32" y="128" width="32" height="32">
   <properties>
    <property name="act1" value="translated_dialog water_postboy"/>
    <property name="behav1" value="talk postboy"/>
   </properties>
  </object>
  <object id="22" name="Random Encounter" type="event" x="384" y="1472" width="96" height="32">
   <properties>
    <property name="act1" value="random_encounter default_encounter,10"/>
    <property name="cond1" value="is char_at player"/>
    <property name="cond2" value="is char_moved player"/>
   </properties>
  </object>
  <object id="23" name="Random Encounter" type="event" x="224" y="1408" width="64" height="64">
   <properties>
    <property name="act1" value="random_encounter default_encounter,10"/>
    <property name="cond1" value="is char_at player"/>
    <property name="cond2" value="is char_moved player"/>
   </properties>
  </object>
  <object id="24" name="Random Encounter" type="event" x="96" y="1120" width="64" height="64">
   <properties>
    <property name="act1" value="random_encounter default_encounter,10"/>
    <property name="cond1" value="is char_at player"/>
    <property name="cond2" value="is char_moved player"/>
   </properties>
  </object>
  <object id="25" name="Random Encounter" type="event" x="416" y="1056" width="96" height="32">
   <properties>
    <property name="act1" value="random_encounter default_encounter,10"/>
    <property name="cond1" value="is char_at player"/>
    <property name="cond2" value="is char_moved player"/>
   </properties>
  </object>
  <object id="26" name="Random Encounter" type="event" x="352" y="1024" width="128" height="32">
   <properties>
    <property name="act1" value="random_encounter default_encounter,10"/>
    <property name="cond1" value="is char_at player"/>
    <property name="cond2" value="is char_moved player"/>
   </properties>
  </object>
  <object id="27" name="Random Encounter" type="event" x="640" y="992" width="128" height="32">
   <properties>
    <property name="act1" value="random_encounter default_encounter,10"/>
    <property name="cond1" value="is char_at player"/>
    <property name="cond2" value="is char_moved player"/>
   </properties>
  </object>
  <object id="28" name="Random Encounter" type="event" x="800" y="1216" width="96" height="96">
   <properties>
    <property name="act1" value="random_encounter default_encounter,10"/>
    <property name="cond1" value="is char_at player"/>
    <property name="cond2" value="is char_moved player"/>
   </properties>
  </object>
  <object id="29" name="Random Encounter" type="event" x="96" y="544" width="96" height="32">
   <properties>
    <property name="act1" value="random_encounter default_encounter,10"/>
    <property name="cond1" value="is char_at player"/>
    <property name="cond2" value="is char_moved player"/>
   </properties>
  </object>
  <object id="30" name="Random Encounter" type="event" x="480" y="448" width="64" height="128">
   <properties>
    <property name="act1" value="random_encounter default_encounter,10"/>
    <property name="cond1" value="is char_at player"/>
    <property name="cond2" value="is char_moved player"/>
   </properties>
  </object>
  <object id="31" name="Random Encounter" type="event" x="704" y="704" width="96" height="64">
   <properties>
    <property name="act1" value="random_encounter default_encounter,10"/>
    <property name="cond1" value="is char_at player"/>
    <property name="cond2" value="is char_moved player"/>
   </properties>
  </object>
  <object id="32" name="Random Encounter" type="event" x="672" y="768" width="96" height="32">
   <properties>
    <property name="act1" value="random_encounter default_encounter,10"/>
    <property name="cond1" value="is char_at player"/>
    <property name="cond2" value="is char_moved player"/>
   </properties>
  </object>
  <object id="33" name="Random Encounter" type="event" x="352" y="128" width="128" height="32">
   <properties>
    <property name="act1" value="random_encounter default_encounter,10"/>
    <property name="cond1" value="is char_at player"/>
    <property name="cond2" value="is char_moved player"/>
   </properties>
  </object>
  <object id="34" name="Random Encounter" type="event" x="256" y="96" width="192" height="32">
   <properties>
    <property name="act1" value="random_encounter default_encounter,10"/>
    <property name="cond1" value="is char_at player"/>
    <property name="cond2" value="is char_moved player"/>
   </properties>
  </object>
  <object id="35" name="Random Encounter" type="event" x="160" y="64" width="160" height="32">
   <properties>
    <property name="act1" value="random_encounter default_encounter,10"/>
    <property name="cond1" value="is char_at player"/>
    <property name="cond2" value="is char_moved player"/>
   </properties>
  </object>
  <object id="36" name="Random Encounter" type="event" x="864" y="128" width="64" height="32">
   <properties>
    <property name="act1" value="random_encounter default_encounter,10"/>
    <property name="cond1" value="is char_at player"/>
    <property name="cond2" value="is char_moved player"/>
   </properties>
  </object>
  <object id="37" name="Random Encounter" type="event" x="832" y="96" width="64" height="32">
   <properties>
    <property name="act1" value="random_encounter default_encounter,10"/>
    <property name="cond1" value="is char_at player"/>
    <property name="cond2" value="is char_moved player"/>
   </properties>
  </object>
  <object id="38" name="Random Encounter" type="event" x="608" y="96" width="64" height="32">
   <properties>
    <property name="act1" value="random_encounter default_encounter,10"/>
    <property name="cond1" value="is char_at player"/>
    <property name="cond2" value="is char_moved player"/>
   </properties>
  </object>
  <object id="39" name="Random Encounter" type="event" x="576" y="128" width="64" height="32">
   <properties>
    <property name="act1" value="random_encounter default_encounter,10"/>
    <property name="cond1" value="is char_at player"/>
    <property name="cond2" value="is char_moved player"/>
   </properties>
  </object>
  <object id="40" name="Random Encounter" type="event" x="544" y="192" width="64" height="32">
   <properties>
    <property name="act1" value="random_encounter default_encounter,10"/>
    <property name="cond1" value="is char_at player"/>
    <property name="cond2" value="is char_moved player"/>
   </properties>
  </object>
  <object id="41" name="Random Encounter" type="event" x="448" y="480" width="32" height="64">
   <properties>
    <property name="act1" value="random_encounter default_encounter,10"/>
    <property name="cond1" value="is char_at player"/>
    <property name="cond2" value="is char_moved player"/>
   </properties>
  </object>
  <object id="42" name="Random Encounter" type="event" x="128" y="576" width="64" height="32">
   <properties>
    <property name="act1" value="random_encounter default_encounter,10"/>
    <property name="cond1" value="is char_at player"/>
    <property name="cond2" value="is char_moved player"/>
   </properties>
  </object>
  <object id="43" name="Random Encounter" type="event" x="608" y="1024" width="64" height="32">
   <properties>
    <property name="act1" value="random_encounter default_encounter,10"/>
    <property name="cond1" value="is char_at player"/>
    <property name="cond2" value="is char_moved player"/>
   </properties>
  </object>
  <object id="44" name="Random Encounter" type="event" x="800" y="992" width="64" height="32">
   <properties>
    <property name="act1" value="random_encounter default_encounter,10"/>
    <property name="cond1" value="is char_at player"/>
    <property name="cond2" value="is char_moved player"/>
   </properties>
  </object>
  <object id="45" name="Random Encounter" type="event" x="736" y="960" width="64" height="32">
   <properties>
    <property name="act1" value="random_encounter default_encounter,10"/>
    <property name="cond1" value="is char_at player"/>
    <property name="cond2" value="is char_moved player"/>
   </properties>
  </object>
  <object id="46" name="Random Encounter" type="event" x="480" y="1408" width="64" height="32">
   <properties>
    <property name="act1" value="random_encounter default_encounter,10"/>
    <property name="cond1" value="is char_at player"/>
    <property name="cond2" value="is char_moved player"/>
   </properties>
  </object>
  <object id="47" name="Random Encounter" type="event" x="448" y="1440" width="64" height="32">
   <properties>
    <property name="act1" value="random_encounter default_encounter,10"/>
    <property name="cond1" value="is char_at player"/>
    <property name="cond2" value="is char_moved player"/>
   </properties>
  </object>
  <object id="48" name="Random Encounter" type="event" x="704" y="1440" width="64" height="32">
   <properties>
    <property name="act1" value="random_encounter default_encounter,10"/>
    <property name="cond1" value="is char_at player"/>
    <property name="cond2" value="is char_moved player"/>
   </properties>
  </object>
  <object id="49" name="Random Encounter" type="event" x="672" y="1408" width="64" height="32">
   <properties>
    <property name="act1" value="random_encounter default_encounter,10"/>
    <property name="cond1" value="is char_at player"/>
    <property name="cond2" value="is char_moved player"/>
   </properties>
  </object>
  <object id="50" name="Random Encounter" type="event" x="288" y="1472" width="64" height="32">
   <properties>
    <property name="act1" value="random_encounter default_encounter,10"/>
    <property name="cond1" value="is char_at player"/>
    <property name="cond2" value="is char_moved player"/>
   </properties>
  </object>
  <object id="51" name="Route Music" type="event" x="0" y="0" width="32" height="32">
   <properties>
    <property name="act1" value="play_music music_home"/>
    <property name="cond1" value="not music_playing music_home"/>
   </properties>
  </object>
  <object id="52" name="Set Environment" type="event" x="32" y="288" width="32" height="32">
   <properties>
    <property name="act1" value="set_environment grass"/>
    <property name="cond1" value="not environment_is grass"/>
   </properties>
  </object>
 </objectgroup>
 <objectgroup color="#ff0000" id="5" name="Collisions">
  <object id="53" type="collision" x="864" y="1312" width="96" height="288"/>
  <object id="54" type="collision" x="736" y="1312" width="128" height="128"/>
  <object id="55" type="collision" x="768" y="1440" width="96" height="64"/>
  <object id="56" type="collision" x="800" y="1504" width="64" height="32"/>
  <object id="57" type="collision" x="832" y="1536" width="32" height="32"/>
  <object id="58" type="collision" x="896" y="1280" width="64" height="32"/>
  <object id="59" type="collision" x="736" y="1280" width="64" height="32"/>
  <object id="60" type="collision" x="736" y="1120" width="64" height="32"/>
  <object id="61" type="collision" x="896" y="1120" width="64" height="32"/>
  <object id="62" type="collision" x="864" y="1024" width="64" height="32"/>
  <object id="63" type="collision" x="800" y="960" width="96" height="32"/>
  <object id="64" type="collision" x="864" y="992" width="32" height="32"/>
  <object id="65" type="collision" x="896" y="1056" width="32" height="64"/>
  <object id="66" type="collision" x="768" y="1088" width="32" height="32"/>
  <object id="67" type="collision" x="736" y="1152" width="32" height="128"/>
  <object id="68" type="collision" x="224" y="384" width="160" height="128"/>
 </objectgroup>
</map>
